!!!COM: Palestrina, Giovanni Perluigi da
!!!OPR: Spem In Alium
!!!OTL: Agnus II
**kern	**kern	**kern	**kern	**kern
*Ibass	*Itenor	*Itenor	*Icalto	*Icant
!Bassus	!Tenor 2	!Tenor 1	!Altus	!Cantus
*clefF4	*clefGv2	*clefGv2	*clefG2	*clefG2
*k[]	*k[]	*k[]	*k[]	*k[]
*A:aeo	*A:aeo	*A:aeo	*A:aeo	*A:aeo
*M4/2	*M4/2	*M4/2	*M4/2	*M4/2
=1	=1	=1	=1	=1
0r	0r	0e	0r	1r
.	.	.	.	[1ee
=2	=2	=2	=2	=2
0r	0r	0c	0r	1ee]
.	.	.	.	[1cc
=3	=3	=3	=3	=3
0r	0r	1.f	0a	1cc]
.	.	.	.	[1ff
.	.	2e	.	.
=4	=4	=4	=4	=4
0r	0r	2.d	0f	2ff]
.	.	.	.	2ee
.	.	4c	.	.
.	.	2.B-	.	[1dd
.	.	4A	.	.
=5	=5	=5	=5	=5
0r	0r	2G	1.b-	0dd]
.	.	1g	.	.
.	.	2f	2a	.
=6	=6	=6	=6	=6
0r	0r	2.e	0g	1.ee
.	.	4d	.	.
.	.	2c	.	.
.	.	2B	.	2dd
=7	=7	=7	=7	=7
0r	1r	1A	1.a	1cc
.	[1e	1E	.	1b
.	.	.	2g	.
=8	=8	=8	=8	=8
0A	1e]	2r	1.cc	0a
.	.	1e	.	.
.	[1c	.	.	.
.	.	2c	2a	.
=9	=9	=9	=9	=9
0F	1c]	1.f	0a	0r
.	[1f	.	.	.
.	.	2e	.	.
=10	=10	=10	=10	=10
1.B-	2f]	1.d	0f	0r
.	2e	.	.	.
.	[1d	.	.	.
2A	.	2c	.	.
=11	=11	=11	=11	=11
1G	0d]	1B	1g	0r
1F	.	2.A	[1a	.
.	.	4B	.	.
=12	=12	=12	=12	=12
[0E	1.e	4c	2a]	0r
.	.	4d	.	.
.	.	4e	2g	.
.	.	4f	.	.
.	.	2.g	2cc	.
.	2d	.	[2b	.
.	.	4f	.	.
=13	=13	=13	=13	=13
0E]	1c	4e	2b]	1r
.	.	4d	.	.
.	.	2.e	1a	.
.	1B	.	.	1ee
.	.	4d	.	.
.	.	2B	2g#	.
=14	=14	=14	=14	=14
1A	0A	1c#	1a	2ee
.	.	.	.	2ee
1D	.	1d	2r	1ff
.	.	.	2a	.
=15	=15	=15	=15	=15
2.A	0r	2r	2a	2ee
.	.	2e	2a	2cc
4G	.	.	.	.
4A	.	2e	1cc	1ee
4B	.	.	.	.
2c	.	2e	.	.
=16	=16	=16	=16	=16
1G	0r	1g	2b	1.dd
.	.	.	2g	.
1D	.	2f	2a	.
.	.	2d	[2b	2dd
=17	=17	=17	=17	=17
0r	0r	1f	4b]	2cc
.	.	.	4a	.
.	.	.	1a	2a
.	.	1e	.	1b
.	.	.	2g#	.
=18	=18	=18	=18	=18
1A	0r	2.c	0a	2a
.	.	.	.	2.cc
.	.	4d	.	.
2A	.	2e	.	.
.	.	.	.	4b
2A	.	[2f	.	[2a
=19	=19	=19	=19	=19
1B-	1r	4f]	1d	2a]
.	.	4e	.	.
.	.	1d	.	2g
[1A	1e	.	1r	[1a
.	.	4c	.	.
.	.	4B	.	.
=20	=20	=20	=20	=20
1A]	2e	1c#	2r	1a]
.	2e	.	2a	.
1D	1f	2d	2a	1r
.	.	2d	2a	.
=21	=21	=21	=21	=21
1A	2e	4c	1cc	1ee
.	.	4d	.	.
.	2c	4e	.	.
.	.	4f	.	.
1E	1e	1g	2b	2ee
.	.	.	2g	2ee
=22	=22	=22	=22	=22
1r	1.d	1.f	2.a	0ff
.	.	.	4g	.
1D	.	.	2a	.
.	2d	2d	[2b	.
=23	=23	=23	=23	=23
1A	2c	0e	4b]	2ee
.	.	.	4a	.
.	2A	.	1a	2cc
1E	1B	.	.	2.ee
.	.	.	2g#	.
.	.	.	.	4dd
=24	=24	=24	=24	=24
1.A	2A	2.e	2.a	1cc
.	2.c	.	.	.
.	.	4d	8g	.
.	.	.	8f	.
.	.	2c	2e	1a
.	4B	.	.	.
2D	[2A	2d	2f	.
=25	=25	=25	=25	=25
1E	2A]	1B	2e	0r
.	2G#	.	1e	.
2r	[1A	1A	.	.
[2F	.	.	2c	.
=26	=26	=26	=26	=26
2F]	1A]	2r	2.f	0r
2D	.	1d	.	.
.	.	.	4g	.
2F	1r	.	2a	.
2G	.	2d	2b	.
=27	=27	=27	=27	=27
2.A	1e	2.c	2.cc	1r
4B	.	4d	8b	.
.	.	.	8a	.
1c	2e	4e	1g	[1cc
.	.	4d	.	.
.	2e	4c	.	.
.	.	4B-	.	.
=28	=28	=28	=28	=28
0F	0f	2A	0a	2cc]
.	.	2F	.	2a
.	.	2.A	.	2cc
.	.	.	.	2dd
.	.	4B	.	.
=29	=29	=29	=29	=29
1C	2e	1c	2r	2.ee
.	2c	.	1g	.
.	.	.	.	4ff
2r	2.e	1c	.	1gg
[2c	.	.	2e	.
.	4d	.	.	.
=30	=30	=30	=30	=30
2c]	1c	2r	2g	0ee
2A	.	1c	2.a	.
2.c	1A	.	.	.
.	.	.	4b	.
.	.	2A	[2cc	.
4B	.	.	.	.
=31	=31	=31	=31	=31
2A	0r	2c	2cc]	0r
4G	.	2d	1b	.
4F#	.	.	.	.
2G	.	2e	.	.
[2A	.	2f	[2a	.
=32	=32	=32	=32	=32
4A]	0r	2e	2a]	2r
4G	.	.	.	.
2E	.	1e	2g	1cc
1F	.	.	1a	.
.	.	2d	.	2a
=33	=33	=33	=33	=33
2C	1r	2e	1g	2cc
2G	.	2B	.	2dd
1C	[1c	4c	1g	1ee
.	.	4d	.	.
.	.	4e	.	.
.	.	4f	.	.
=34	=34	=34	=34	=34
0r	2c]	2g	2e	2.cc
.	2A	1c	2a	.
.	.	.	.	4dd
.	2c	.	1g	2ee
.	2d	2B	.	[2dd
=35	=35	=35	=35	=35
0r	2.e	1A	1c	2dd]
.	.	.	.	1cc
.	4f	.	.	.
.	1g	1G	1d	.
.	.	.	.	2b
=36	=36	=36	=36	=36
2r	0e	2.g	0c	1cc
1c	.	.	.	.
.	.	4f	.	.
.	.	4e	.	2r
.	.	4d	.	.
2A	.	4c	.	[2cc
.	.	4B	.	.
=37	=37	=37	=37	=37
2c	0r	2A	1r	2cc]
2d	.	1a	.	2a
1e	.	.	2r	2cc
.	.	2g#	2e	2b
=38	=38	=38	=38	=38
1A	2r	1a	2e	2.a
.	1c	.	2a	.
.	.	.	.	4b
1r	.	1e	2g	4cc
.	.	.	.	4dd
.	2A	.	[2cc	[2ee
=39	=39	=39	=39	=39
0r	2c	1r	4cc]	2ee]
.	.	.	4b	.
.	2d	.	1a	4dd
.	.	.	.	4cc
.	1e	2r	.	1b
.	.	[2e	2g#	.
=40	=40	=40	=40	=40
1.A	2.c	2e]	0a	2.a
.	.	2e	.	.
.	4d	.	.	4b
.	2e	2c	.	2cc
2D	[2d	2f	.	2dd
=41	=41	=41	=41	=41
2A	2d]	2e	1r	2ee
2A	1c	2c	.	2ff
1G	.	1d	2r	1gg
.	2B	.	[2g	.
=42	=42	=42	=42	=42
2C	1c	2.c	2g]	1ee
1c	.	.	2e	.
.	.	4d	.	.
.	2r	1e	2g	2r
2A	[2c	.	[2a	[2ee
=43	=43	=43	=43	=43
2.c	2c]	4e	4a]	2ee]
.	.	4d	4b	.
.	2A	4c	2.cc	2ee
4B	.	4d	.	.
2A	2c	4e	.	1ee
.	.	4f	4b	.
2E	2B	2g	2g	.
=44	=44	=44	=44	=44
1F	2.A	1f	1a	2dd
.	.	.	.	1cc
.	4B	.	.	.
2.C	4c	1e	2.g	.
.	4d	.	.	.
.	[2e	.	.	4b
4D	.	.	4f	4a
=45	=45	=45	=45	=45
0E	2e]	1r	0e	2g#
.	4d	.	.	1a
.	4c	.	.	.
.	1B	2r	.	.
.	.	[2e	.	2g#
=46	=46	=46	=46	=46
1A	[0A	2e]	2r	[0a
.	.	2A	1c	.
2r	.	2e	.	.
[2F	.	2c	2A	.
=47	=47	=47	=47	=47
2F]	1A_	0f	2c	1a]
2D	.	.	2d	.
2.F	1A_	.	2c	2r
.	.	.	4A	[2cc
4G	.	.	4B	.
=48	=48	=48	=48	=48
1.A	0A]	2e	4c	2cc]
.	.	.	4d	.
.	.	1c	2.e	2a
.	.	.	.	2cc
.	.	.	4c	.
2D	.	2A	2f	2dd
=49	=49	=49	=49	=49
2A	[0A	2c	2e	2ee
1D	.	1d	2d	1ff
.	.	.	[1a	.
2C#	.	2e	.	2ee
=50	=50	=50	=50	=50
0D	0A]	0f	0a]	0dd
=51	=51	=51	=51	=51
[0A	[0A	[0e	[0a	[0cc#
=52	=52	=52	=52	=52
0A]	0A]	0e]	0a]	0cc#]
==	==	==	==	==
*-	*-	*-	*-	*-
!!!CDT: 1525/^1526/-1594/2/2
!!!OCY: Italia
!!!AGN: Mass (Parody)
!!!AST: renaissance, vocal
!!!ASW: Motet 1539 (Jacquet)
!!!PWK: Masses, Book 3
!!!RNB: Cadence finals: D
!!!YOR: Le Opere Complete, v. 6, p. 1
!!!YOO: Rome, Italy: Fratelli Scalera
!!!END: 1992//
!!!EED: John Miller
!!!YEC: Copyright 2000, John Miller
!!!YEN: United States of America
!!!YEM: Rights to all derivative electronic formats reserved.
!!!YEM: Refer to licensing agreement for further details.
!!!YEM: This file must be accompanied by the licensing agreement.
!!!YEM: A copy of the licensing agreement may be found at http://www.music-cog.ohio-state.edu/HumdrumDatabases/Palestrina/license.txt
!!!EMD: converted to Humdrum by Bret Aarden
